!!!COM: Corelli, Arcangelo
!!!OTL: 
!!!ONM: Opus 5, No. 2
!!!OMV: 4
!!!CDT: 1653/2/17/-1713/1/8/
!!!OCY: Italia
**kern	**kern
*clefC	*clefG
*k[b-]	*k[b-]
*d:	*d:
*M4/4	*M4/4
=1	=1
8G	2r
8F	.
8E-	.
8D	.
8E-	2g
8D	.
8C	.
8BB-	.
=2	=2
8C	4.a
8AA	.
8D	.
8DD	16b-
.	16cc
8G	8b-
8A	8g
8B-	4r
8A	.
=3	=3
8G	2b-
8F	.
8E-	.
8D	.
8E-	4.cc
8C	.
8F	.
8FF	16dd
.	16ee-
=4	=4
8BB-	8dd
8C	8b-
8D	4r
8C	.
8BB	4.dd
8GG	.
8AA	.
8BB	16gg
.	16dd
=5	=5
8C	8ee-
8D	8dd
4E-	8b-
.	8cc
8D	4.dd
8E	.
8F#	.
8D	8dd
=6	=6
8G	8b-
8A	8g
8B-	8r
8G	8ee-
8A	8cc
8F	8a
8G	8r
8A	8ff
=7	=7
8B-	8dd
8c	8b-
8d	8r
8D	8ff
8E-	8gg
8G	8b-
8c	[4ee-
8B-	.
=8	=8
8A	4ee-]
8F	.
8B-	8dd
8E-	8cc
8F	4dd
8E-	.
8F	4cc
8FF	.
=9	=9
8BB-	4.b-
8C	.
8BB-	.
8AA-	8ff
8GG	8b
8AA-	4cc
8FF	.
8GG	8b
=10	=10
8C	4.cc
8D	.
8C	.
8BB-	8gg
8AA	8cc#
8BB-	4dd
8GG	.
8AA	8cc#
=11	=11
8D	4dd
8E	.
8D	4.ff
8C	.
8BB	.
8C	8ee-
8F	8.dd
8G	.
.	32cc
.	32dd
=12	=12
8C	8ee-
8D	8cc
8C	4.ee-
8BB-	.
8AA	.
8BB-	8dd
8E-	8.cc
8F	.
.	32b-
.	32cc
=13	=13
8BB-	8dd
8C	8b-
8D	4.bb-
8E	.
4.F	.
.	16aa
.	16gg
.	[4aa
8F#	.
=14	=14
8G	8aa]
8A	8dd
8B-	4.gg
8c	.
8d	.
8A	16aa
.	16gg
[4d	8ff
.	16gg
.	16dd
=15	=15
8d]	[4ee-
16c	.
16B-	.
4.c	16ee-]
.	16cc
.	16dd
.	16ee-
.	8f#
8B-	4dd
8E-	.
8e-	[8cc
=16	=16
8F#	8cc]
8G	8b-
8C	4a
8D	.
8G	4.g
8A	.
8B	.
8G	16gg
.	16dd
=17	=17
8c	8ee-
8d	8g
8e-	4.cc
8c	.
8F#	.
8D	16dd
.	16cc
8G	8b-
8BB-	16cc
.	16g
=18	=18
8C	8a-
8D	8f#
8E-	2g
8BB-	.
8C	.
8AA	.
8D	4f#
8DD	.
=19	=19
4GG	4g
4FF	2dd
2EE-	.
.	4cc
=20	=20
1DD	1dd
==	==
*-	*-
!!!RWG: This file only contains pitch and duration data.
!!!RWG: Transposing instruments are not transposed.
!!!RWG: Durations of rests and tied notes may be interpreted.
!!!RWG: Key is interpreted using the Humdrum key tool.
!!!SCA: 
!!!YOR: 
!!!AGN: violin
!!!AFT: stage1
!!!ENC: F. Bennion
!!!END: 1997/04/15
!!!AST: baroque
!!!YEC: Copyright 1994, Center for Computer Assisted Research in the Humanities
!!!YEM: Rights to all derivative electronic formats reserved.
!!!YEM: Refer to licensing agreement for further details.
!!!YEN: United States of America
!!!EED: W.B. Hewlett
!!!KEY: 1781941472
!!!EMD: Converted from MuseData to Humdrum Aug 9, 1999, by Bret Aarden using muse2kern.
!!!VTS: 1884902319
